!!!COA:	Josquin des Prez
!!!CDT:	~1450-1521/08/27
!!!OPR:	Missa L'homme arm&eacute; quarti toni
!!!ONM:	2
!!!OTL:	Gloria
!!!AGN:	Mass; Gloria
!!!SCT:	NJE 6.1
!!!SCA:	New Josquin Edition 6.1
!!!voices:	4
!!!voices-OPR:	4
**kern	**kern	**kern	**kern
*staff4	*staff3	*staff2	*staff1
*Ivox	*Ivox	*Ivox	*Ivox
*I"Bassus	*I"Tenor	*I"Altus	*I"Superius
*I'B	*I'T	*I'A	*I'S
*>[A,B,C]	*>[A,B,C]	*>[A,B,C]	*>[A,B,C]
*>A	*>A	*>A	*>A
*clefF4	*clefGv2	*clefGv2	*clefG2
*k[]	*k[]	*k[]	*k[]
*M3/1	*M3/1	*M3/1	*M3/1
*met(O)	*met(O)	*met(O)	*met(O)
=1-	=1-	=1-	=1-
0.r	0.r	1E	0.r
.	.	1E	.
.	.	1E	.
=2	=2	=2	=2
1AA	0.r	0A	0.r
1AA	.	.	.
1AA	.	1A	.
=3	=3	=3	=3
0D	0.r	2B\	0.r
.	.	2.A/	.
.	.	4G/	.
.	.	4F/	.
.	.	4E/	.
1D	.	1F	.
=4	=4	=4	=4
1C	0.r	2.E/	0.r
.	.	4F/	.
2BB/	.	2G/	.
2AA/	.	1A	.
1BB	.	.	.
.	.	2G#i/	.
=5	=5	=5	=5
1.AA	0E	0A	0.r
2BB/	.	.	.
1C	1E	1G	.
=6	=6	=6	=6
1D	0A	2F/	1r
.	.	4E/	.
.	.	4D/	.
1AA	.	1C	0e
4AA/	1A	[1c	.
4BB/	.	.	.
4C/	.	.	.
4D\	.	.	.
=7	=7	=7	=7
2E\	1G	1c]	1e
2C/	.	.	.
0D	2.F/	2A/	0a
.	.	2.d\	.
.	4E/	.	.
.	1F	.	.
.	.	4c\	.
.	.	[2A/	.
=8	=8	=8	=8
1AA	0E	4A/]	1a
.	.	4B\	.
.	.	2c\	.
1C	.	2G/	1g
.	.	1c	.
[1D	1r	.	2.f/
.	.	4B\	.
.	.	4A/	4e/
=9	=9	=9	=9
1D]	0.r	1B	1f
2.C/	.	1.c	2.e/
4D\	.	.	4f/
2E\	.	.	2g/
2F\	.	2A/	[2a/
=10	=10	=10	=10
1E	2r	1B	2a/]
.	2E/	.	2g#i/
0AA	2E/	1A	2a/
.	2E/	.	2cc\
.	1A	2r	2cc\
.	.	2c\	2cc\
=11	=11	=11	=11
2r	4A/	2c\	1a
.	4G/	.	.
2AA/	4F/	2c\	.
.	4E/	.	.
2D\	1F	2A/	1r
2D\	.	2A/	.
2C/	[1E	2c\	1g
2C/	.	2c\	.
=12	=12	=12	=12
2C/	0E]	2c\	2g/
2C/	.	2c\	2g/
2C/	.	[0G	2e/
2C/	.	.	2e/
[1GG	1B	.	1d
=13	=13	=13	=13
1GG]	2B\	1G]	0d
.	2B\	.	.
1GG	2B\	1r	.
.	2B\	.	.
[1C	[1E	1G	2.e/
.	.	.	4f/
=14	=14	=14	=14
1C]	1E]	0c	2g/
.	.	.	1a
2C/	1r	.	.
2C/	.	.	2.g/
1D	1r	2A/	.
.	.	.	4f#i/
.	.	2A/	2f#i/
=15	=15	=15	=15
1r	1B	0G	1g
1E	2B\	.	1r
.	2B\	.	.
2E\	2B\	1r	1g
2E\	2B\	.	.
=16	=16	=16	=16
2E\	0.E	1G	2g/
2E\	.	.	2g/
1AA	.	1.c	2a/
.	.	.	2a/
1C	.	.	1g
.	.	2c\	.
=17	=17	=17	=17
1C	0.r	2e\	2r
.	.	2e\	1cc
1GG	.	1d	.
.	.	.	2.b\
1r	.	4d\	.
.	.	4c\	4a/
.	.	4B\	[2a/
.	.	4A/	.
=18	=18	=18	=18
0.r	0.r	1B	2a/]
.	.	.	2g#i/
.	.	1A	0a
.	.	2r	.
.	.	2c\	.
=19	=19	=19	=19
0.r	0.r	2c\	1g
.	.	2B\	.
.	.	1A	2e/
.	.	.	2.f/
.	.	2G/	.
.	.	.	4e/
.	.	2E/	[2e/
=20	=20	=20	=20
0.r	0.r	1F	2e/]
.	.	.	2d/
.	.	2E/	1e
.	.	2A/	.
.	.	2A/	2r
.	.	2A/	2a/
=21	=21	=21	=21
2r	0.r	1D	2a/
2D\	.	.	2a/
2D\	.	1A	0d
2D\	.	.	.
1GG	.	2B\	.
.	.	2B\	.
=22	=22	=22	=22
2D\	0.r	4A/	0.r
.	.	4G/	.
2D\	.	4F/	.
.	.	4E/	.
2D\	.	2D/	.
2.C/	.	2.A/	.
4BB/	.	4G/	.
4AA/	.	[2G/	.
4GG/	.	.	.
=23	=23	=23	=23
1AA	0.r	2G/]	1r
.	.	2F#i/	.
1GG	.	0G	1r
[1C	.	.	[1e
=24	=24	=24	=24
2C/]	0.r	1.c	2e/]
2C/	.	.	2e/
1C	.	.	2.e/
.	.	2c\	.
.	.	.	4f/
1r	.	1c	2g/
.	.	.	[2a/
=25	=25	=25	=25
0.r	0.r	1B	2a/]
.	.	.	2g#i/
.	.	0A	1a
.	.	.	1r
=26	=26	=26	=26
0.r	0.r	1r	1cc
.	.	1G	1b
.	.	2.A/	2a/
.	.	.	4g/
.	.	4B\	4f/
=27	=27	=27	=27
1r	0.r	2c\	2e/
.	.	2d\	2.a/
1r	.	4c\	.
.	.	4B\	4g/
.	.	4A/	1g
.	.	4G/	.
1D	.	1A	.
.	.	.	2f#i/
=28	=28	=28	=28
0E	0.r	1G	1g
.	.	4G/	1r
.	.	4A/	.
.	.	4B\	.
.	.	4c\	.
1D	.	4d\	1r
.	.	4e\	.
.	.	2f\	.
=29	=29	=29	=29
2C/	0.r	2e\	1r
2G\	.	1d	.
2E\	.	.	1r
2C/	.	1c	.
1D	.	.	1d
.	.	2B\	.
=30	=30	=30	=30
0C	0.r	1c	0e
.	.	2r	.
.	.	2.G/	.
1r	.	.	1e
.	.	4A/	.
.	.	4B\	.
.	.	8A/L	.
.	.	8B/J	.
=31	=31	=31	=31
0.r	0.r	2.c\	2c/
.	.	.	2g/
.	.	4B\	.
.	.	2A/	4f/
.	.	.	4e/
.	.	2G/	1e
.	.	1F	.
.	.	.	2d/
=32	=32	=32	=32
0.r	[0.B	0.E	0e
.	.	.	[1g
=33	=33	=33	=33
0E	0B]	1e	2g/]
.	.	.	2g/
.	.	2e\	1g
.	.	2e\	.
1E	1B	1e	1g
=34	=34	=34	=34
0AA	0A	0c	0a
1E	1G	1B	1r
=35	=35	=35	=35
1E	1G	4G/	0.r
.	.	4A/	.
.	.	4B\	.
.	.	4c\	.
1D	1F	2d\	.
.	.	1A	.
1D	1F	.	.
.	.	2B\	.
=36	=36	=36	=36
1.C	0E	2c\	0.r
.	.	4B\	.
.	.	4A/	.
.	.	2G/	.
2AA/	.	1A	.
1BB	1r	.	.
.	.	2G#i/	.
=37	=37	=37	=37
0AA	1r	1A	1r
.	1r	1e	1r
1E	1B	[1e	1g
=38	=38	=38	=38
0E	0B	1e]	0g
.	.	1e	.
1E	1B	1e	1g
=39	=39	=39	=39
2.AA/	0A	2r	2.a/
.	.	1e	.
4BB/	.	.	4g/
2C/	.	.	2e/
2D\	.	4d\	2f/
.	.	4c\	.
1E	1G	1B	1g
=40	=40	=40	=40
2AA/	2E/	1A	2c/
2D\	2F/	.	2.f/
1C	2G/	1r	.
.	.	.	4e/
.	2A/	.	1e
1D	1F	1A	.
.	.	.	2d/
=41	=41	=41	=41
2r	0.El	0.Bl	0.el
1G	.	.	.
4F\	.	.	.
4E\	.	.	.
1El	.	.	.
!!LO:LB:i:g=z
=42||	=42||	=42||	=42||
*>B	*>B	*>B	*>B
*clefF4	*clefGv2	*clefGv2	*clefG2
*k[]	*k[]	*k[]	*k[]
*M2/1	*M2/1	*M2/1	*M2/1
*met(C|)	*met(C|)	*met(C|)	*met(C|)
!!section: Domine Deus, Agnus Dei
!!!OMD: Domine Deus, Agnus Dei
0r	0r	0E	0r
=43	=43	=43	=43
0AA	0r	1E	0r
.	.	[1A	.
=44	=44	=44	=44
1AA	0r	1A]	0r
[1D	.	1A	.
=45	=45	=45	=45
1D]	0r	2B\	0r
.	.	1A	.
1D	.	.	.
.	.	4G/	.
.	.	4F/	.
=46	=46	=46	=46
2E\	0r	2G/	0r
1D	.	2A/	.
.	.	1D	.
4C/	.	.	.
4BB/	.	.	.
=47	=47	=47	=47
2C/	0r	2r	0r
2D\	.	1D	.
1GG	.	.	.
.	.	2E/	.
=48	=48	=48	=48
2r	0r	2D/	0r
1GG	.	1G	.
2AA/	.	2F/	.
=49	=49	=49	=49
2GG/	0r	1G	0r
1C	.	.	.
.	.	2r	.
2BB/	.	[2G/	.
=50	=50	=50	=50
1C	0r	2G/]	0r
.	.	2A/	.
2r	.	2G/	.
[2C/	.	[2c\	.
=51	=51	=51	=51
2C/]	0r	2c\]	0r
2D\	.	2B\	.
2C/	.	2c\	.
[2F\	.	2A/	.
=52	=52	=52	=52
2F\]	0r	1G	0r
2E\	.	.	.
2F\	.	2A/	.
2D\	.	[2B\	.
=53	=53	=53	=53
2C/	0r	2B\]	0r
4BB/	.	1A	.
4AA/	.	.	.
1BB	.	.	.
.	.	2G#i/	.
=54	=54	=54	=54
0AA	0r	1A	0r
.	.	2r	.
.	.	[2A/	.
=55	=55	=55	=55
2r	0r	4A/]	0r
.	.	4B\	.
2.AA/	.	2.c\	.
4BB/	.	4B\	.
[2C/	.	4A/	.
.	.	4G/	.
=56	=56	=56	=56
4C/]	0r	2A/	0r
4BB/	.	.	.
4AA/	.	1G	.
4GG/	.	.	.
1AA	.	.	.
.	.	2F#i/	.
=57	=57	=57	=57
1GG	0r	1G	0r
[1C	.	2r	.
.	.	[2G/	.
=58	=58	=58	=58
1C]	0r	2G/]	0r
.	.	2A/	.
2.C/	.	2G/	.
.	.	[2c\	.
4D\	.	.	.
=59	=59	=59	=59
1E	0r	2c\]	0r
.	.	2.B\	.
2r	.	.	.
.	.	4A/	.
[2E\	.	4G/	.
.	.	4F/	.
=60	=60	=60	=60
4E\]	0r	1E	0r
4D\	.	.	.
4C/	.	.	.
4BB/	.	.	.
2C/	.	2r	.
2D\	.	[2B\	.
=61	=61	=61	=61
1AA	0r	2B\]	0r
.	.	1A	.
1BB	.	.	.
.	.	2G#i/	.
=62	=62	=62	=62
1AA	0r	2A/	0r
.	.	2c\	.
2r	.	2B\	.
2AA/	.	[2A/	.
=63	=63	=63	=63
1C	0r	4A/]	0r
.	.	8G/L	.
.	.	8F/J	.
.	.	2.E/	.
4C/	.	.	.
4D\	.	4F/	.
4E\	.	2G/	.
4F\	.	.	.
=64	=64	=64	=64
2G\	0r	2.C/	0r
2.C/	.	.	.
.	.	4D/	.
.	.	4E/	.
4D\	.	4F/	.
4E\	.	[2G/	.
4F\	.	.	.
=65	=65	=65	=65
2.E\	0r	4G/]	0r
.	.	4A/	.
.	.	4B\	.
8D/L	.	4c\	.
8C/J	.	.	.
2BB/	.	2d\	.
2C/	.	[2c\	.
=66	=66	=66	=66
1D	0r	2c\]	0r
.	.	2B\	.
[1C	.	1c	.
=67	=67	=67	=67
1C]	0r	2r	0r
.	.	2G/	.
2r	.	2A/	.
2C/	.	2c\	.
=68	=68	=68	=68
2D\	0r	1B	0r
2E\	.	.	.
2F\	.	[1A	.
4E\	.	.	.
4D\	.	.	.
=69	=69	=69	=69
2C/	0r	1A]	0r
2.F\	.	.	.
.	.	2G/	.
4E\	.	.	.
[2E\	.	2E/	.
=70	=70	=70	=70
2E\]	0r	1F	0r
2D\	.	.	.
1El	.	1El	.
!!LO:LB:i:g=z
=71||	=71||	=71||	=71||
*>C	*>C	*>C	*>C
*clefF4	*clefGv2	*clefGv2	*clefG2
*k[]	*k[]	*k[]	*k[]
*M2/1	*M2/1	*M2/1	*M2/1
*met(C|)	*met(C|)	*met(C|)	*met(C|)
!!section: Qui tollis
!!!OMD: Qui tollis
0r	0e	1c	0r
.	.	2c\	.
.	.	4B\	.
.	.	4A/	.
=72	=72	=72	=72
0r	1e	2G/	0r
.	.	2A/	.
.	1e	1E	.
=73	=73	=73	=73
1G	0d	0r	0r
2G\	.	.	.
4F\	.	.	.
4E\	.	.	.
=74	=74	=74	=74
2D\	1d	0r	1r
2G\	.	.	.
2.C/	[1e	.	2r
.	.	.	[2g/
4D\	.	.	.
=75	=75	=75	=75
1E	1e]	0r	4g/]
.	.	.	4a/
.	.	.	4b\
.	.	.	4cc\
2r	1e	.	2b\
[2E\	.	.	[2g/
=76	=76	=76	=76
2E\]	0B	1r	2g/]
4D\	.	.	4f/
4C/	.	.	4e/
2BB/	.	1G	2d/
2E\	.	.	2g/
=77	=77	=77	=77
1AA	0e	1A	1c
1E	.	1B	2r
.	.	.	[2g/
=78	=78	=78	=78
1C	1e	1c	2g/]
.	.	.	1a
[1D	[1d	2A/	.
.	.	[2d\	[2b\
=79	=79	=79	=79
1D]	1d]	4d\]	4b\]
.	.	4c\	4a/
.	.	2A/	1a
1r	1d	1B	.
.	.	.	2g#i/
=80	=80	=80	=80
1r	[0e	1A	1.a
[1AA	.	1r	.
.	.	.	2b\
=81	=81	=81	=81
2AA/]	0e]	1A	1cc
2BB/	.	.	.
1C	.	2E/	1g
.	.	[2G/	.
=82	=82	=82	=82
0GG	0d	2G/]	2r
.	.	4F/	2.g/
.	.	4E/	.
.	.	2D/	.
.	.	.	4f/
.	.	[2G/	4e/
.	.	.	4d/
=83	=83	=83	=83
1C	1r	4G/]	2c/
.	.	4F/	.
.	.	4E/	2.G/
.	.	4D/	.
1E	1e	2C/	.
.	.	.	4A/
.	.	[2G/	4B/
.	.	.	4c/
=84	=84	=84	=84
0D	0f	2G/]	2d/
.	.	4F/	1c
.	.	4E/	.
.	.	1F	.
.	.	.	2B/
=85	=85	=85	=85
1.C	0e	2G/	0c
.	.	2A/	.
.	.	2E/	.
4BB/	.	[2A/	.
4AA/	.	.	.
=86	=86	=86	=86
1BB	0d	2A/]	0r
.	.	4G#i/	.
.	.	4F#i/	.
1BB	.	1G#i	.
=87	=87	=87	=87
0AA	0c	1A	0r
.	.	1e	.
=88	=88	=88	=88
1E	[0B	2e\	0g
.	.	2e\	.
2E\	.	2e\	.
2E\	.	2e\	.
=89	=89	=89	=89
2E\	0B]	0e	2g/
2E\	.	.	2g/
2E\	.	.	2g/
2E\	.	.	2g/
=90	=90	=90	=90
1C	0r	1e	2.g/
.	.	.	4a/
2r	.	2.d\	2b\
[2D\	.	.	[2a/
.	.	4c\	.
=91	=91	=91	=91
2D\]	0r	2B\	4a/]
.	.	.	4g/
2C/	.	2c\	1g
1D	.	1A	.
.	.	.	2f#i/
=92	=92	=92	=92
1GG	1r	0G	1g
[1C	[1e	.	1r
=93	=93	=93	=93
2C/]	2e\]	1.c	1.g
2C/	2e\	.	.
[1C	[1e	.	.
.	.	2c\	2g/
=94	=94	=94	=94
1C]	1e]	1c	1g
1C	1e	1c	1g
=95	=95	=95	=95
1G	1d	1B	1g
1G	1d	1B	1g
=96	=96	=96	=96
1F	1d	1A	1a
1F	1d	1A	1f
=97	=97	=97	=97
0E	0e	0B	[0g
=98	=98	=98	=98
0C	0e	1.E	0g]
.	.	2F/	.
=99	=99	=99	=99
[0GG	[0B	0G	1g
.	.	.	[1d
=100	=100	=100	=100
0GG_	0B]	1r	1d]
.	.	[1G	1r
=101	=101	=101	=101
0GG]	0r	1G]	0g
.	.	1B	.
=102	=102	=102	=102
1r	0r	1B	1g
[1D	.	1A	[1f
=103	=103	=103	=103
1D]	0r	2A/	1f]
.	.	1A	.
1D	.	.	1f
.	.	4G/	.
.	.	4F/	.
=104	=104	=104	=104
0C	0e	1E	0g
.	.	2r	.
.	.	[2E/	.
=105	=105	=105	=105
1C	1e	4E/]	1g
.	.	4F/	.
.	.	4G/	.
.	.	4A/	.
[1D	[1d	2B\	2d/
.	.	[2A/	[2f/
=106	=106	=106	=106
1D]	1d]	4A/]	4f/]
.	.	4G/	4g/
.	.	4F/	1a
.	.	4E/	.
1D	1d	2F/	.
.	.	2D/	2b\
=107	=107	=107	=107
0AA	0e	2.A/	2.cc\
.	.	4B\	4b\
.	.	2c\	4a/
.	.	.	4g/
.	.	[2C/	2a/
=108	=108	=108	=108
0r	1e	4C/]	2.g/
.	.	4D/	.
.	.	4E/	.
.	.	4F/	8f/L
.	.	.	8e/J
.	[1B	4G/	2.d/
.	.	4A/	.
.	.	4B\	.
.	.	4c\	4e/
=109	=109	=109	=109
1r	1B]	2d\	2d/
.	.	2G/	1g
1D	1r	1A	.
.	.	.	4f/
.	.	.	4e/
=110	=110	=110	=110
0E	0r	2r	1g
.	.	2.G/	.
.	.	.	1r
.	.	4A/	.
.	.	4B\	.
.	.	4c\	.
=111	=111	=111	=111
1D	0r	2B\	0r
.	.	4A/	.
.	.	8G/L	.
.	.	8F/J	.
1C	.	2.E/	.
.	.	4F/	.
=112	=112	=112	=112
0BB	0r	2G/	0r
.	.	1A	.
.	.	2G#i/	.
=113	=113	=113	=113
0AA	1r	0A	1c
.	1e	.	2c/
.	.	.	2c/
=114	=114	=114	=114
1D	0f	2r	1d
.	.	2A/	.
2D\	.	2A/	2A/
2D\	.	2F/	[2B/
=115	=115	=115	=115
1C	1e	2G/	4B/]
.	.	.	4A/
.	.	2A/	1A
1BB	1d	2D/	.
.	.	[2G/	2G/
=116	=116	=116	=116
1AA	0c	2G/]	1A
.	.	4F#i/	.
.	.	4E/	.
1AA	.	1F#i	1r
=117	=117	=117	=117
1GG	[0B	0G	1d
2GG/	.	.	1d
[2GG/	.	.	.
=118	=118	=118	=118
2GG/]	0B]	1G	2d/
2GG/	.	.	1d
2GG/	.	1G	.
2GG/	.	.	2d/
=119	=119	=119	=119
1C	0r	2G/	1e
.	.	1G	.
2C/	.	.	2e/
[2C/	.	2G/	[2e/
=120	=120	=120	=120
2C/]	0r	1c	2e/]
2C/	.	.	2e/
1C	.	2c\	1e
.	.	[2A/	.
=121	=121	=121	=121
2C/	1r	2A/]	2e/
2D\	.	2A/	2f/
1E	1E	2.G/	[1g
.	.	4A/	.
=122	=122	=122	=122
0r	1E	2B\	1g]
.	.	2c\	.
.	1E	1B	1r
=123	=123	=123	=123
0AA	0A	1A	1r
.	.	1c	1e
=124	=124	=124	=124
0C	1A	1c	0e
.	1G	1c	.
=125	=125	=125	=125
0D	0F	[0A	0d
=126	=126	=126	=126
0AA	0E	0A]	0c
=127	=127	=127	=127
[0E	1r	1B	0g
.	1B	1B	.
=128	=128	=128	=128
0E]	1B	1E	1g
.	1E	[1B	1g
=129	=129	=129	=129
1E	1.B	2B\]	1.g
.	.	2B\	.
1E	.	1E	.
.	2B\	.	2g/
=130	=130	=130	=130
1.E	1E	1e	1g
.	1r	2e\	1g
2E\	.	2e\	.
=131	=131	=131	=131
1E	1B	1e	1.g
1r	2B\	[1d	.
.	2B\	.	2g/
=132	=132	=132	=132
0r	1B	1d]	1g
.	[1A	[1c	[1f
=133	=133	=133	=133
0r	1A]	1c]	2f/]
.	.	.	2e/
.	1G	1B	[1e
=134	=134	=134	=134
0r	0F	0A	2e/]
.	.	.	4d/
.	.	.	4c/
.	.	.	1d
=135	=135	=135	=135
1E	0E	1r	1e
2E\	.	[1B	[1g
2E\	.	.	.
=136	=136	=136	=136
1E	0r	2B\]	1g]
.	.	2c\	.
[1D	.	1d	[1f
=137	=137	=137	=137
1D]	0r	2A/	1f]
.	.	2B\	.
1C	.	2c\	1e
.	.	[2A/	.
=138	=138	=138	=138
0BB	1B	2A/]	0d
.	.	4G#i/	.
.	.	4F#i/	.
.	1B	1G#i	.
=139	=139	=139	=139
0AA	0E	0A	0c
=140	=140	=140	=140
0E	1r	1B	[0g
.	1B	[1e	.
=141	=141	=141	=141
0E	1B	2e\]	0g]
.	.	2d\	.
.	1B	1e	.
=142	=142	=142	=142
1AA	0A	1c	1e
1D	.	1d	[1f
=143	=143	=143	=143
1E	1G	1B	2f/]
.	.	.	2e/
1C	1E	1c	[1e
=144	=144	=144	=144
0D	0F	0A	1e]
.	.	.	1d
=145	=145	=145	=145
2r	[0El	2B\	[0e
2.AA/	.	2.c\	.
4BB/	.	4B\	.
[2C/	.	2A/	.
=146	=146	=146	=146
4C/]	0E_	2G/	0e]
4BB/	.	.	.
2AA/	.	2A/	.
2GG/	.	1E	.
2AA/	.	.	.
=147	=147	=147	=147
*^	*	*	*
0EEl\	0El/	0E]	0Bl	0el
*v	*v	*	*	*
==	==	==	==
*-	*-	*-	*-
!!!RDF**kern: l=long note in original notation
!!!RDF**kern: i=editorial accidental
!!!RDF**kern: V=start of tuplet marker
!!!RDF**kern: Z=end of tuplet marker
!!!ENC:	Jesse Rodin; Victoria Chang 2012/02/25
!!!END:	2012/02/25/
!!!EED:	Jesse Rodin
!!!EEV:	2012/08/03/
!!attribution-level@Jos: 5 (doubtful)
!!!ONB:	Translated from MusicXML and edited on 2012/08/03/ by Craig Sapp
!!muse2ps: T^@{OPR}^u^@{ONM}{. }@{OTL}^C^Comp&egrave;re/Josquin?\n@{SCT}^i2I150v85,85,85,150c140
